src/assets/icons/instagram.svg

<svg width="24" height="25" viewBox="0 0 24 25" fill="none" xmlns="http://www.w3.org/2000/svg">
<path fill-rule="evenodd" clip-rule="evenodd" d="M12 3.86719C9.5556 3.86719 9.2496 3.87739 8.2896 3.92119C7.3314 3.96499 6.6768 4.11739 6.1044 4.33999C5.5044 4.56559 4.9602 4.91959 4.5102 5.37799C4.05253 5.82747 3.69831 6.37128 3.4722 6.97159C3.2508 7.54399 3.0978 8.19919 3.054 9.15739C3.0108 10.1168 3 10.4222 3 12.8672C3 15.3122 3.0102 15.6176 3.054 16.5776C3.0978 17.5358 3.2502 18.1904 3.4728 18.7628C3.6984 19.3628 4.0524 19.907 4.5108 20.357C4.96029 20.8146 5.50411 21.1689 6.1044 21.395C6.6768 21.617 7.3314 21.7694 8.2896 21.8132C9.2496 21.857 9.5556 21.8672 12 21.8672C14.4444 21.8672 14.7504 21.857 15.7104 21.8132C16.6686 21.7694 17.3232 21.617 17.8956 21.3944C18.4956 21.1688 19.0398 20.8148 19.4898 20.3564C19.9475 19.9069 20.3017 19.3631 20.5278 18.7628C20.7498 18.1904 20.9022 17.5358 20.946 16.5776C20.9898 15.6176 21 15.3116 21 12.8672C21 10.4228 20.9898 10.1168 20.946 9.15679C20.9022 8.19859 20.7498 7.54399 20.5272 6.97159C20.3012 6.37103 19.947 5.82698 19.4892 5.37739C19.0397 4.91972 18.4959 4.5655 17.8956 4.33939C17.3232 4.11799 16.668 3.96499 15.7098 3.92119C14.7504 3.87799 14.445 3.86719 12 3.86719ZM12 5.48899C14.403 5.48899 14.688 5.49799 15.6372 5.54119C16.5144 5.58139 16.9908 5.72719 17.3082 5.85139C17.7282 6.01399 18.0282 6.20959 18.3432 6.52399C18.6582 6.83899 18.8532 7.13899 19.0158 7.55899C19.1394 7.87639 19.2858 8.35279 19.326 9.22999C19.3692 10.1792 19.3782 10.4642 19.3782 12.8672C19.3782 15.2702 19.3692 15.5552 19.326 16.5044C19.2858 17.3816 19.14 17.858 19.0158 18.1754C18.8718 18.5663 18.6419 18.92 18.3432 19.2104C18.0528 19.5092 17.6992 19.739 17.3082 19.883C16.9908 20.0066 16.5144 20.153 15.6372 20.1932C14.688 20.2364 14.4036 20.2454 12 20.2454C9.5964 20.2454 9.312 20.2364 8.3628 20.1932C7.4856 20.153 7.0092 20.0072 6.6918 19.883C6.30087 19.7389 5.9472 19.5091 5.6568 19.2104C5.35811 18.92 5.12828 18.5663 4.9842 18.1754C4.8606 17.858 4.7142 17.3816 4.674 16.5044C4.6308 15.5552 4.6218 15.2702 4.6218 12.8672C4.6218 10.4642 4.6308 10.1792 4.674 9.22999C4.7142 8.35279 4.86 7.87639 4.9842 7.55899C5.1468 7.13899 5.3424 6.83899 5.6568 6.52399C5.94716 6.22521 6.30085 5.99537 6.6918 5.85139C7.0092 5.72779 7.4856 5.58139 8.3628 5.54119C9.312 5.49799 9.597 5.48899 12 5.48899Z" fill="black"/>
<path fill-rule="evenodd" clip-rule="evenodd" d="M12 15.871C11.6057 15.871 11.2152 15.7933 10.8508 15.6424C10.4865 15.4914 10.1554 15.2702 9.87658 14.9914C9.59773 14.7125 9.37653 14.3815 9.22561 14.0172C9.0747 13.6528 8.99702 13.2623 8.99702 12.868C8.99702 12.4736 9.0747 12.0831 9.22561 11.7188C9.37653 11.3544 9.59773 11.0234 9.87658 10.7445C10.1554 10.4657 10.4865 10.2445 10.8508 10.0935C11.2152 9.94263 11.6057 9.86495 12 9.86495C12.7965 9.86495 13.5603 10.1813 14.1235 10.7445C14.6866 11.3077 15.003 12.0715 15.003 12.868C15.003 13.6644 14.6866 14.4282 14.1235 14.9914C13.5603 15.5546 12.7965 15.871 12 15.871ZM12 8.24195C10.7731 8.24195 9.59649 8.72933 8.72895 9.59688C7.8614 10.4644 7.37402 11.6411 7.37402 12.868C7.37402 14.0948 7.8614 15.2715 8.72895 16.139C9.59649 17.0066 10.7731 17.494 12 17.494C13.2269 17.494 14.4036 17.0066 15.2711 16.139C16.1386 15.2715 16.626 14.0948 16.626 12.868C16.626 11.6411 16.1386 10.4644 15.2711 9.59688C14.4036 8.72933 13.2269 8.24195 12 8.24195ZM17.9718 8.15795C17.9718 8.44797 17.8566 8.7261 17.6515 8.93117C17.4465 9.13625 17.1683 9.25145 16.8783 9.25145C16.5883 9.25145 16.3102 9.13625 16.1051 8.93117C15.9 8.7261 15.7848 8.44797 15.7848 8.15795C15.7848 7.86794 15.9 7.5898 16.1051 7.38473C16.3102 7.17966 16.5883 7.06445 16.8783 7.06445C17.1683 7.06445 17.4465 7.17966 17.6515 7.38473C17.8566 7.5898 17.9718 7.86794 17.9718 8.15795Z" fill="black"/>
</svg>

<svg xmlns="http://www.w3.org/2000/svg" width="24" height="25" fill="none"><path fill="#000" fill-rule="evenodd" d="M12 3.867c-2.444 0-2.75.01-3.71.054-.959.044-1.613.196-2.186.419-.6.226-1.144.58-1.594 1.038-.457.45-.812.993-1.038 1.594-.221.572-.374 1.227-.418 2.185-.043.96-.054 1.265-.054 3.71s.01 2.75.054 3.71c.044.959.196 1.613.419 2.186.225.6.58 1.144 1.038 1.594.45.458.993.812 1.593 1.038.573.222 1.227.374 2.186.418.96.044 1.266.054 3.71.054s2.75-.01 3.71-.054c.959-.044 1.613-.196 2.186-.419.6-.225 1.144-.58 1.594-1.038.458-.45.812-.993 1.038-1.593.222-.573.374-1.227.418-2.185.044-.96.054-1.266.054-3.71s-.01-2.751-.054-3.711c-.044-.958-.196-1.613-.419-2.185a4.4 4.4 0 0 0-1.038-1.595 4.4 4.4 0 0 0-1.593-1.038c-.573-.221-1.228-.374-2.186-.418-.96-.043-1.265-.054-3.71-.054m0 1.622c2.403 0 2.688.009 3.637.052.877.04 1.354.186 1.671.31.42.163.72.359 1.035.673s.51.615.673 1.035c.123.317.27.794.31 1.671.043.95.052 1.234.052 3.637s-.009 2.688-.052 3.637c-.04.878-.186 1.354-.31 1.671-.144.391-.374.745-.673 1.035-.29.3-.644.529-1.035.673-.317.124-.794.27-1.67.31-.95.043-1.234.052-3.638.052s-2.688-.009-3.637-.052c-.877-.04-1.354-.186-1.671-.31a2.8 2.8 0 0 1-1.035-.673 2.8 2.8 0 0 1-.673-1.035c-.123-.317-.27-.793-.31-1.67-.043-.95-.052-1.235-.052-3.638s.009-2.688.052-3.637c.04-.877.186-1.354.31-1.671.163-.42.358-.72.673-1.035.29-.299.644-.529 1.035-.673.317-.123.794-.27 1.67-.31.95-.043 1.235-.052 3.638-.052" clip-rule="evenodd"/><path fill="#000" fill-rule="evenodd" d="M12 15.871a3.004 3.004 0 1 1 0-6.007 3.004 3.004 0 0 1 0 6.007m0-7.63a4.626 4.626 0 1 0 0 9.253 4.626 4.626 0 0 0 0-9.252m5.972-.083a1.093 1.093 0 1 1-2.187 0 1.093 1.093 0 0 1 2.187 0" clip-rule="evenodd"/></svg>
